X:2

T:Roaring Barmaid, The

R:jig

C:Anthony Sullivan

N:This transcription is from the band recordings of Danu and Lunasa (see

N:Discography).  Note that both groups mistakenly call the tune "The

N:Butlers of Glen Avenue".  Danu records the tune one half step higher

N:than notated here.

D:Danu "Think before you think..."

D:Lunasa "Otherworld"

Z:Ken Laberteaux

M:6/8

L:1/8

K:G

T:Danu Version

~G3 EGD|~G3 EGD|~G3 BGG|dGG  BdA|

~G3 EGD|~G3 EGD|GAB deg|deg edB:|

|:deg b3|bab deg|b3 bag|edB deg|

b3 bab|agg bgg|agg egg|deg edB:|

T:Lunasa Version

GFG EGD|GFG EGD|DEG BGG|dGG  BAB|

GFG EGD|GFG EGD|GAB deg|deg edB:|

|:deg b2b-|bab deg|b2 b2 ag|edB deg|

b2 b2 ab|agg bgg|agg egg|deg edB:|

 


ROARING JELLY. AKA and see "Smash the Windows [1]," "Jelly Jig" (American). English, Irish, Scottish; Jig. D Major. Standard. AB (Kerr): AAB (Athole, Kennedy, Raven): ABB (Gow). A seemingly plausible story attached to the title is that it refers to the plastic explosive gelignite, or the "jelly" of World War II fame, which itself actually seems to have been invented in the 1880's. Gelignite’s predecessors, the substances dynamite (patented in 1867 and invented by Swedish industrialist Alfred Nobel {of Nobel Prize fame} when he stabilized liquid nitro-glycerine by embedding it in kieselgur) and nitro-glycerine itself (first made by Ascanio Sobrero in 1846), considerably predate this time. The title “Roaring Jelly,” however, appears in a Gow’s Complete Repository (Part 3) of c. 1806, which seems to preclude a connection with explosives.  Another explanation proposed for the title is that in the process of making jelly one must boil it, and this boiling can sometimes become furious and noisome, thus “Roaring Jelly.” Nigel Gatherer has in his possession a 78 RPM recording of the melody played in waltz time, entitled on the label “Jelly Well Spread.” Carlin (The Gow Collection), 1986; No. 439. Gow (Complete Repository), Part 3, 1806; pg. 34. Kennedy (Fiddler’s Tune Book), Vol. 1, 1951; No. 82, pg. 40. Kerr (Merry Melodies), vol. 1; No. 44, pg. 40. Raven (English Country Dance Tunes), 1984; pg. 107. Stewart-Robertson (The Athole Collection), 1884; pg. 137.

